public/flags/TW.svg

<svg fill="none" height="53" viewBox="0 0 61 53" width="61" xmlns="http://www.w3.org/2000/svg" xmlns:xlink="http://www.w3.org/1999/xlink"><mask id="a" height="43" maskUnits="userSpaceOnUse" width="59" x="1" y="3"><rect fill="#fff" height="42.5" rx="4.24286" width="59" x="1" y="3"/></mask><rect fill="#fff" height="42.5" rx="4.24286" width="59" x="1" y="3"/><g clip-rule="evenodd" fill-rule="evenodd" mask="url(#a)"><path d="m-1.80957 48.3334h64.61907v-48.166713h-64.61907z" fill="#fe3030"/><path d="m-1.80957 25.6667h33.71427v-25.500013h-33.71427z" fill="#0909b6"/><path d="m16.4525 17.875-2.6879 3.0025.2046-4.0398-4.00583.2063 2.97723-2.7107-2.97723-2.7106 4.00583.2063-.2046-4.03981 2.6879 3.00251 2.6879-3.00251-.2046 4.03981 4.0059-.2063-2.9773 2.7106 2.9773 2.7107-4.0059-.2063.2046 4.0398z" fill="#fff"/></g></svg>

<svg width="61" height="53" viewBox="0 0 61 53" fill="none" xmlns="http://www.w3.org/2000/svg">
<rect x="1" y="3" width="59" height="42.5" rx="4.24286" fill="white"/>
<mask id="mask0" mask-type="alpha" maskUnits="userSpaceOnUse" x="1" y="3" width="59" height="43">
<rect x="1" y="3" width="59" height="42.5" rx="4.24286" fill="white"/>
</mask>
<g mask="url(#mask0)">
<path fill-rule="evenodd" clip-rule="evenodd" d="M-1.80957 48.3334H62.8095V0.166687H-1.80957V48.3334Z" fill="#FE3030"/>
<path fill-rule="evenodd" clip-rule="evenodd" d="M-1.80957 25.6667H31.9047V0.166687H-1.80957V25.6667Z" fill="#0909B6"/>
<path fill-rule="evenodd" clip-rule="evenodd" d="M16.4525 17.875L13.7646 20.8775L13.9692 16.8377L9.96337 17.044L12.9406 14.3333L9.96337 11.6227L13.9692 11.829L13.7646 7.78919L16.4525 10.7917L19.1404 7.78919L18.9358 11.829L22.9417 11.6227L19.9644 14.3333L22.9417 17.044L18.9358 16.8377L19.1404 20.8775L16.4525 17.875Z" fill="white"/>
</g>
</svg>
